papirus/32x32/apps/preferences-desktop-theme.svg

<svg height="32" viewBox="0 0 32.000001 32.000001" width="32" xmlns="http://www.w3.org/2000/svg"><path d="m3.3998 29c-.7756 0-1.4-.6194-1.4-1.3889v-1.6111h28v1.6111c0 .7695-.6244 1.3889-1.4 1.3889z" fill="#4d4d4d"/><path d="m3.4003906 4c-.7756 0-1.4003906.6191719-1.4003906 1.3886719v1.3886719 19.2226562h28v-19.2226562-1.3886719c0-.7695-.624791-1.3886719-1.400391-1.3886719z" fill="#4ab3e4"/><path d="m3.4002 4c-.7756 0-1.4004.6192-1.4004 1.3887v1c0-.7695.6248-1.3887 1.4004-1.3887h25.2c.775 0 1.4.6192 1.4 1.3887v-1c0-.7695-.625-1.3887-1.4-1.3887z" fill="#fff" opacity=".1"/><rect height="8" opacity=".2" rx=".74999994" ry=".66666669" width="11.999999" x="10" y="13"/><path d="m10 14v5.333984c0 .369334.3345.666016.75.666016h10.5c.4155 0 .75-.296682.75-.666016v-5.333984z" fill="#fff"/><path d="m10.750001 12h10.499999c.4155 0 .75.297334.75.666667v1.333333h-11.999999v-1.333333c0-.369333.3345-.666667.75-.666667z" fill="#4d4d4d"/><rect height="3" opacity=".2" rx=".375" width="3" x="3" y="18"/><rect height="3" opacity=".2" rx=".375" width="3" x="3" y="6"/><rect fill="#fff" height="3" rx=".375" width="3" x="3" y="5"/><rect height="3" opacity=".2" rx=".375" width="3" x="3" y="10"/><rect fill="#fff" height="3" rx=".375" width="3" x="3" y="9"/><rect height="3" opacity=".2" rx=".375" width="3" x="3" y="14"/><rect fill="#fff" height="3" rx=".375" width="3" x="3" y="13"/><rect fill="#fff" height="3" rx=".375" width="3" x="3" y="17"/><path d="m2 26.611328v1c0 .7695.6247906 1.388672 1.4003906 1.388672h25.1992184c.7756 0 1.400391-.619172 1.400391-1.388672v-1c0 .7695-.624791 1.388672-1.400391 1.388672h-25.1992184c-.7756 0-1.4003906-.619172-1.4003906-1.388672z" opacity=".3"/></svg>

<?xml version="1.0" encoding="UTF-8" standalone="no"?>
<svg
   xmlns:dc="http://purl.org/dc/elements/1.1/"
   xmlns:cc="http://creativecommons.org/ns#"
   xmlns:rdf="http://www.w3.org/1999/02/22-rdf-syntax-ns#"
   xmlns:svg="http://www.w3.org/2000/svg"
   xmlns="http://www.w3.org/2000/svg"
   id="svg4468"
   height="32"
   width="32"
   version="1.1"
   viewBox="0 0 32.000001 32.000001">
  <defs
     id="defs4470" />
  <metadata
     id="metadata4473">
    <rdf:RDF>
      <cc:Work
         rdf:about="">
        <dc:format>image/svg+xml</dc:format>
        <dc:type
           rdf:resource="http://purl.org/dc/dcmitype/StillImage" />
        <dc:title></dc:title>
      </cc:Work>
    </rdf:RDF>
  </metadata>
  <path
     d="m 3.3998,29 c -0.7756,0 -1.4,-0.6194 -1.4,-1.3889 l 0,-1.6111 28,0 0,1.6111 c 0,0.7695 -0.6244,1.3889 -1.4,1.3889 z"
     id="rect3328"
     style="fill:#4d4d4d" />
  <path
     id="rect4203"
     d="M 3.4003906 4 C 2.6247906 4 2 4.6191719 2 5.3886719 L 2 6.7773438 L 2 26 L 30 26 L 30 6.7773438 L 30 5.3886719 C 30 4.6191719 29.375209 4 28.599609 4 L 3.4003906 4 z "
     style="fill:#4ab3e4" />
  <path
     d="M 3.4002,4 C 2.6246,4 1.9998,4.6192 1.9998,5.3887 l 0,1 C 1.9998,5.6192 2.6246,5 3.4002,5 l 25.2,0 c 0.775,0 1.4,0.6192 1.4,1.3887 l 0,-1 C 30.0002,4.6192 29.3752,4 28.6002,4 l -25.2,0 z"
     id="path4144"
     style="opacity:0.1;fill:#ffffff" />
  <rect
     rx="0.74999994"
     ry="0.66666669"
     y="13"
     x="10"
     height="8"
     width="11.999999"
     id="rect4477"
     style="opacity:0.2;fill:#000000;fill-opacity:1;stroke:none;stroke-width:4;stroke-linecap:round;stroke-linejoin:round;stroke-miterlimit:4;stroke-dasharray:none;stroke-opacity:1" />
  <path
     id="rect4152"
     d="M 10 14 L 10 19.333984 C 10 19.703318 10.3345 20 10.75 20 L 21.25 20 C 21.6655 20 22 19.703318 22 19.333984 L 22 14 L 10 14 z "
     style="opacity:1;fill:#ffffff;fill-opacity:1;stroke:none;stroke-width:4;stroke-linecap:round;stroke-linejoin:round;stroke-miterlimit:4;stroke-dasharray:none;stroke-opacity:1" />
  <path
     style="opacity:1;fill:#4d4d4d;fill-opacity:1;stroke:none;stroke-width:4;stroke-linecap:round;stroke-linejoin:round;stroke-miterlimit:4;stroke-dasharray:none;stroke-opacity:1"
     d="M 10.750001,12 21.25,12 C 21.6655,12 22,12.297334 22,12.666667 L 22,14 l -11.999999,0 0,-1.333333 c 0,-0.369333 0.3345,-0.666667 0.75,-0.666667 z"
     id="rect4154" />
  <rect
     style="opacity:0.2;fill:#000000;fill-opacity:1;stroke-width:1;stroke-miterlimit:4;stroke-dasharray:none"
     id="rect4473"
     width="3"
     height="3"
     x="3"
     y="18"
     ry="0.375"
     rx="0.375" />
  <rect
     rx="0.375"
     ry="0.375"
     y="6"
     x="3"
     height="3"
     width="3"
     id="rect4467"
     style="opacity:0.2;fill:#000000;fill-opacity:1;stroke-width:1;stroke-miterlimit:4;stroke-dasharray:none" />
  <rect
     style="opacity:1;fill:#ffffff;fill-opacity:1;stroke-width:1;stroke-miterlimit:4;stroke-dasharray:none"
     id="rect4139"
     width="3"
     height="3"
     x="3"
     y="5"
     ry="0.375"
     rx="0.375" />
  <rect
     style="opacity:0.2;fill:#000000;fill-opacity:1;stroke-width:1;stroke-miterlimit:4;stroke-dasharray:none"
     id="rect4469"
     width="3"
     height="3"
     x="3"
     y="10"
     ry="0.375"
     rx="0.375" />
  <rect
     rx="0.375"
     ry="0.375"
     y="9"
     x="3"
     height="3"
     width="3"
     id="rect4141"
     style="opacity:1;fill:#ffffff;fill-opacity:1;stroke-width:1;stroke-miterlimit:4;stroke-dasharray:none" />
  <rect
     rx="0.375"
     ry="0.375"
     y="14"
     x="3"
     height="3"
     width="3"
     id="rect4471"
     style="opacity:0.2;fill:#000000;fill-opacity:1;stroke-width:1;stroke-miterlimit:4;stroke-dasharray:none" />
  <rect
     style="opacity:1;fill:#ffffff;fill-opacity:1;stroke-width:1;stroke-miterlimit:4;stroke-dasharray:none"
     id="rect4143"
     width="3"
     height="3"
     x="3"
     y="13"
     ry="0.375"
     rx="0.375" />
  <rect
     rx="0.375"
     ry="0.375"
     y="17"
     x="3"
     height="3"
     width="3"
     id="rect4145"
     style="opacity:1;fill:#ffffff;fill-opacity:1;stroke-width:1;stroke-miterlimit:4;stroke-dasharray:none" />
  <path
     id="path4154"
     d="M 2 26.611328 L 2 27.611328 C 2 28.380828 2.6247906 29 3.4003906 29 L 28.599609 29 C 29.375209 29 30 28.380828 30 27.611328 L 30 26.611328 C 30 27.380828 29.375209 28 28.599609 28 L 3.4003906 28 C 2.6247906 28 2 27.380828 2 26.611328 z "
     style="fill:#000000;fill-opacity:1;opacity:0.3" />
</svg>
